dist/postcss-logo-type.svg

<?xml version="1.0" encoding="UTF-8" standalone="no"?>
<svg width="152px" height="33px" viewBox="0 0 152 33" version="1.1" xmlns="http://www.w3.org/2000/svg" xmlns:xlink="http://www.w3.org/1999/xlink" xmlns:sketch="http://www.bohemiancoding.com/sketch/ns">
    <!-- Generator: sketchtool 3.4 (375) - http://www.bohemiancoding.com/sketch -->
    <title>postcss-logo-type</title>
    <desc>Created with sketchtool.</desc>
    <defs></defs>
    <g id="Logo-Variations" stroke="none" stroke-width="1" fill="none" fill-rule="evenodd" sketch:type="MSPage">
        <g id="Color" sketch:type="MSArtboardGroup" transform="translate(-159.000000, -97.000000)">
            <g id="postcss-logo-horizontal" sketch:type="MSLayerGroup" transform="translate(65.000000, 74.000000)">
                <g id="postcss-logo-type" transform="translate(92.000000, 10.000000)" sketch:type="MSShapeGroup">
                    <g id="PostCSS-Paths" transform="translate(2.000000, 13.000000)">
                        <path d="M132.228,30.436 L132.55,22.662 L135.77,22.662 L136.598,27.584 C137.916673,28.0746691 139.235327,28.32 140.554,28.32 C143.191347,28.32 145.000662,27.4613419 145.982,25.744 C146.319335,25.1613304 146.488,24.402338 146.488,23.467 C146.488,22.531662 146.204336,21.6883371 145.637,20.937 C145.069664,20.1856629 144.13434,19.4880032 142.831,18.844 C141.52766,18.1999968 140.239673,17.6173359 138.967,17.096 C137.694327,16.5746641 136.544338,15.9536703 135.517,15.233 C134.489662,14.5123297 133.646337,13.6230053 132.987,12.565 C132.327663,11.5069947 131.998,10.2343408 131.998,8.747 C131.998,7.25965923 132.266331,6.01000506 132.803,4.998 C133.339669,3.98599494 134.067995,3.12733686 134.988,2.422 C136.92001,0.94999264 139.281319,0.214 142.072,0.214 C144.77068,0.214 147.361988,0.6739954 149.846,1.594 L150.49,9.506 L147.316,9.506 L145.292,4.538 C144.371995,4.2313318 143.21434,4.078 141.819,4.078 C140.42366,4.078 139.243005,4.39999678 138.277,5.044 C137.310995,5.68800322 136.828,6.66932674 136.828,7.988 C136.828,9.521341 137.594659,10.7786618 139.128,11.76 C139.80267,12.2200023 140.553996,12.6263316 141.382,12.979 C142.210004,13.3316684 143.168328,13.7533309 144.257,14.244 C145.345672,14.7346691 146.365329,15.31733 147.316,15.992 C148.266671,16.66667 149.03333,17.3719963 149.616,18.108 C150.720006,19.4880069 151.272,21.0673244 151.272,22.846 C151.272,24.6246756 150.973003,26.0889942 150.375,27.239 C149.776997,28.3890057 148.972005,29.3319963 147.96,30.068 C146.058657,31.4786737 143.544016,32.184 140.416,32.184 C137.287984,32.184 134.558678,31.6013392 132.228,30.436 Z M108.906,30.436 L109.228,22.662 L112.448,22.662 L113.276,27.584 C114.594673,28.0746691 115.913327,28.32 117.232,28.32 C119.869347,28.32 121.678662,27.4613419 122.66,25.744 C122.997335,25.1613304 123.166,24.402338 123.166,23.467 C123.166,22.531662 122.882336,21.6883371 122.315,20.937 C121.747664,20.1856629 120.81234,19.4880032 119.509,18.844 C118.20566,18.1999968 116.917673,17.6173359 115.645,17.096 C114.372327,16.5746641 113.222338,15.9536703 112.195,15.233 C111.167662,14.5123297 110.324337,13.6230053 109.665,12.565 C109.005663,11.5069947 108.676,10.2343408 108.676,8.747 C108.676,7.25965923 108.944331,6.01000506 109.481,4.998 C110.017669,3.98599494 110.745995,3.12733686 111.666,2.422 C113.59801,0.94999264 115.959319,0.214 118.75,0.214 C121.44868,0.214 124.039988,0.6739954 126.524,1.594 L127.168,9.506 L123.994,9.506 L121.97,4.538 C121.049995,4.2313318 119.89234,4.078 118.497,4.078 C117.10166,4.078 115.921005,4.39999678 114.955,5.044 C113.988995,5.68800322 113.506,6.66932674 113.506,7.988 C113.506,9.521341 114.272659,10.7786618 115.806,11.76 C116.48067,12.2200023 117.231996,12.6263316 118.06,12.979 C118.888004,13.3316684 119.846328,13.7533309 120.935,14.244 C122.023672,14.7346691 123.043329,15.31733 123.994,15.992 C124.944671,16.66667 125.71133,17.3719963 126.294,18.108 C127.398006,19.4880069 127.95,21.0673244 127.95,22.846 C127.95,24.6246756 127.651003,26.0889942 127.053,27.239 C126.454997,28.3890057 125.650005,29.3319963 124.638,30.068 C122.736657,31.4786737 120.222016,32.184 117.094,32.184 C113.965984,32.184 111.236678,31.6013392 108.906,30.436 Z M105.226,30.114 C103.29399,31.4940069 100.580017,32.184 97.084,32.184 C92.8519788,32.184 89.2333484,30.8346802 86.228,28.136 C82.9466503,25.1613185 81.306,21.2666907 81.306,16.452 C81.306,11.3613079 82.8699844,7.31334836 85.998,4.308 C88.8500143,1.57865302 92.4686447,0.214 96.854,0.214 C98.8166765,0.214 101.085987,0.50533042 103.662,1.088 L104.536,9.46 L101.408,9.46 L99.614,4.492 C99.0313304,4.27733226 98.0193405,4.17 96.578,4.17 C95.1366595,4.17 93.7490067,4.49199678 92.415,5.136 C91.0809933,5.78000322 89.9540046,6.6386613 89.034,7.712 C87.1019903,9.98134468 86.136,12.7413171 86.136,15.992 C86.136,19.5186843 87.1939894,22.4319885 89.31,24.732 C91.4566774,27.0626783 94.3086489,28.228 97.866,28.228 C99.1846733,28.228 100.395994,28.0286687 101.5,27.63 C102.604006,27.2313313 103.401331,26.8480018 103.892,26.48 L105.226,30.114 Z" id="CSS" fill="#3F526B"></path>
                        <path d="M7.66,27.998 C8.4266705,28.1513341 10.6499816,28.4579977 14.33,28.918 L14.192,32 L0.576,32 L0.116,28.78 L3.06,28.136 L3.06,3.94 L0.162,3.71 L0.162,0.214 L9.868,0.214 C14.130688,0.214 17.3506558,1.17999034 19.528,3.112 C21.4906765,4.89067556 22.472,7.313318 22.472,10.38 C22.472,13.9680179 21.2606788,16.6513244 18.838,18.43 C16.6913226,19.9940078 13.6706861,20.776 9.776,20.776 L7.66,20.776 L7.66,27.998 Z M17.642,10.334 C17.642,6.22464612 14.8513612,4.17 9.27,4.17 L7.66,4.17 L7.66,16.82 L9.592,16.82 C12.4133474,16.82 14.4986599,16.1760064 15.848,14.888 C17.044006,13.7533277 17.642,12.2353428 17.642,10.334 L17.642,10.334 Z M30.936,26.825 C31.9173382,28.097673 33.2053254,28.734 34.8,28.734 C36.3946746,28.734 37.6979949,28.1130062 38.71,26.871 C39.7220051,25.6289938 40.228,23.7353461 40.228,21.19 C40.228,18.6446539 39.7450048,16.6590071 38.779,15.233 C37.8129952,13.8069929 36.5020083,13.094 34.846,13.094 C33.0979913,13.094 31.7486714,13.8453258 30.798,15.348 C29.9086622,16.7893405 29.464,18.744321 29.464,21.213 C29.464,23.681679 29.9546618,25.552327 30.936,26.825 L30.936,26.825 Z M25.094,20.73 C25.094,18.9513244 25.3546641,17.3720069 25.876,15.992 C26.3973359,14.6119931 27.1179954,13.4466714 28.038,12.496 C29.8166756,10.5946572 32.0859862,9.644 34.846,9.644 C37.6673474,9.644 39.9979908,10.6559899 41.838,12.68 C43.6780092,14.7040101 44.598,17.417983 44.598,20.822 C44.598,24.3793511 43.6166765,27.1853231 41.654,29.24 C39.8446576,31.2026765 37.575347,32.184 34.846,32.184 C31.9939857,32.184 29.6633424,31.1413438 27.854,29.056 C26.0139908,27.0013231 25.094,24.2260175 25.094,20.73 L25.094,20.73 Z M55.684,9.644 C56.6653382,9.644 57.5699959,9.78199862 58.398,10.058 C59.2260041,10.3340014 59.9466636,10.6866645 60.56,11.116 C61.7253392,11.9133373 62.6299968,12.9406604 63.274,14.198 L58.582,15.992 L57.524,13.646 C56.9106636,13.3393318 56.2513369,13.186 55.546,13.186 C54.8406631,13.186 54.1966696,13.3929979 53.614,13.807 C53.0313304,14.2210021 52.74,14.8266627 52.74,15.624 C52.74,16.4213373 53.1233295,17.0729975 53.89,17.579 C54.6566705,18.0850025 55.7146599,18.6139972 57.064,19.166 C58.4133401,19.7180028 59.4483297,20.2393309 60.169,20.73 C60.8896703,21.2206691 61.4493313,21.7419972 61.848,22.294 C62.6146705,23.3060051 62.998,24.4329938 62.998,25.675 C62.998,26.9170062 62.7680023,27.9366627 62.308,28.734 C61.8479977,29.5313373 61.2500037,30.1906641 60.514,30.712 C59.0726595,31.6933382 57.3246769,32.184 55.27,32.184 C53.5526581,32.184 51.8813415,31.7086714 50.256,30.758 C48.7533258,29.8379954 47.7720023,28.7033401 47.312,27.354 L52.05,25.56 L53.154,28.228 C53.8593369,28.5346682 54.510997,28.688 55.109,28.688 C55.707003,28.688 56.1899982,28.6420005 56.558,28.55 C56.9260018,28.4579995 57.2633318,28.3200009 57.57,28.136 C58.2753369,27.6759977 58.628,27.0013378 58.628,26.112 C58.628,24.9773277 57.9303403,24.111003 56.535,23.513 C55.1396597,22.914997 53.9436717,22.3706691 52.947,21.88 C51.9503284,21.3893309 51.11467,20.8680028 50.44,20.316 C49.0599931,19.1506608 48.37,17.6173428 48.37,15.716 C48.37,13.845324 49.1213258,12.3426723 50.624,11.208 C52.0346737,10.1653281 53.7213235,9.644 55.684,9.644 L55.684,9.644 Z M78.224,27.354 C78.2853336,27.5686677 78.6073304,28.5806576 79.19,30.39 C78.7606645,30.7886687 78.1320041,31.1873313 77.304,31.586 C76.4759959,31.9846687 75.4026733,32.184 74.084,32.184 C72.7653267,32.184 71.6536712,31.7853373 70.749,30.988 C69.8443288,30.1906627 69.392,28.8873424 69.392,27.078 L69.392,13.094 L65.62,13.094 L64.976,10.104 L65.298,9.644 L69.392,9.644 L69.392,1.962 L73.072,1.088 L73.302,1.778 L73.302,9.644 L78.086,9.644 C78.2393341,9.644 78.316,9.73599908 78.316,9.92 L78.316,13.094 L73.302,13.094 L73.302,26.296 C73.302,27.2773382 73.4476652,27.9136652 73.739,28.205 C74.0303348,28.4963348 74.3983311,28.642 74.843,28.642 C75.2876689,28.642 75.6633318,28.5960005 75.97,28.504 C76.2766682,28.4119995 76.5679986,28.2893341 76.844,28.136 C77.4266696,27.8906654 77.886665,27.6300014 78.224,27.354 L78.224,27.354 Z" id="Post" fill="#DD390A"></path>
                    </g>
                </g>
            </g>
        </g>
    </g>
</svg>

<svg width="152" height="33" viewBox="0 0 152 33" xmlns="http://www.w3.org/2000/svg"><title>postcss-logo-type</title><g fill="none" fill-rule="evenodd"><path d="M132.228 30.436l.322-7.774h3.22l.828 4.922c1.32.49 2.637.736 3.956.736 2.637 0 4.447-.86 5.428-2.576.337-.583.506-1.342.506-2.277s-.284-1.78-.85-2.53c-.568-.75-1.504-1.45-2.807-2.093-1.302-.644-2.59-1.227-3.863-1.748-1.273-.52-2.423-1.142-3.45-1.863-1.027-.72-1.87-1.61-2.53-2.668-.66-1.058-.99-2.33-.99-3.818 0-1.487.27-2.737.806-3.75.537-1.01 1.265-1.87 2.185-2.575C136.92.95 139.28.214 142.072.214c2.7 0 5.29.46 7.774 1.38l.644 7.912h-3.174l-2.024-4.968c-.92-.307-2.078-.46-3.473-.46-1.396 0-2.577.322-3.543.966-.966.644-1.45 1.625-1.45 2.944 0 1.533.768 2.79 2.3 3.772.676.46 1.427.866 2.255 1.22.828.352 1.786.773 2.875 1.264 1.09.49 2.108 1.073 3.06 1.748.95.675 1.716 1.38 2.3 2.116 1.103 1.38 1.655 2.96 1.655 4.738 0 1.78-.3 3.243-.897 4.393-.598 1.15-1.403 2.092-2.415 2.828-1.9 1.41-4.416 2.116-7.544 2.116-3.128 0-5.857-.583-8.188-1.748zm-23.322 0l.322-7.774h3.22l.828 4.922c1.32.49 2.637.736 3.956.736 2.637 0 4.447-.86 5.428-2.576.337-.583.506-1.342.506-2.277s-.284-1.78-.85-2.53c-.568-.75-1.504-1.45-2.807-2.093-1.304-.644-2.592-1.227-3.865-1.748-1.273-.52-2.423-1.142-3.45-1.863-1.027-.72-1.87-1.61-2.53-2.668-.66-1.058-.99-2.33-.99-3.818 0-1.487.27-2.737.806-3.75.538-1.01 1.266-1.87 2.186-2.575C113.598.95 115.96.214 118.75.214c2.7 0 5.29.46 7.774 1.38l.644 7.912h-3.174l-2.024-4.968c-.92-.307-2.078-.46-3.473-.46s-2.576.322-3.542.966c-.966.644-1.45 1.625-1.45 2.944 0 1.533.768 2.79 2.3 3.772.676.46 1.427.866 2.255 1.22.828.352 1.786.773 2.875 1.264 1.09.49 2.108 1.073 3.06 1.748.95.675 1.716 1.38 2.3 2.116 1.103 1.38 1.655 2.96 1.655 4.738 0 1.78-.3 3.243-.897 4.393-.598 1.15-1.403 2.092-2.415 2.828-1.9 1.41-4.416 2.116-7.544 2.116-3.128 0-5.857-.583-8.188-1.748zm-3.68-.322c-1.932 1.38-4.646 2.07-8.142 2.07-4.232 0-7.85-1.35-10.856-4.048-3.28-2.975-4.922-6.87-4.922-11.684 0-5.09 1.564-9.14 4.692-12.144C88.85 1.578 92.468.214 96.854.214c1.963 0 4.232.29 6.808.874l.874 8.372h-3.128l-1.794-4.968c-.583-.215-1.595-.322-3.036-.322-1.44 0-2.83.322-4.163.966-1.334.644-2.46 1.503-3.38 2.576-1.933 2.27-2.9 5.03-2.9 8.28 0 3.527 1.06 6.44 3.175 8.74 2.147 2.33 5 3.496 8.556 3.496 1.32 0 2.53-.2 3.634-.598 1.104-.4 1.9-.782 2.392-1.15l1.334 3.634z" fill="#3F526B"/><path d="M7.66 27.998c.767.153 2.99.46 6.67.92L14.192 32H.576l-.46-3.22 2.944-.644V3.94L.162 3.71V.214h9.706c4.263 0 7.483.966 9.66 2.898 1.963 1.78 2.944 4.2 2.944 7.268 0 3.588-1.21 6.27-3.634 8.05-2.147 1.564-5.167 2.346-9.062 2.346H7.66v7.222zm9.982-17.664c0-4.11-2.79-6.164-8.372-6.164H7.66v12.65h1.932c2.82 0 4.907-.644 6.256-1.932 1.196-1.135 1.794-2.653 1.794-4.554zm13.294 16.49c.98 1.274 2.27 1.91 3.864 1.91 1.595 0 2.898-.62 3.91-1.863 1.012-1.24 1.518-3.135 1.518-5.68s-.483-4.53-1.45-5.957c-.965-1.426-2.276-2.14-3.932-2.14-1.748 0-3.097.752-4.048 2.255-.89 1.44-1.334 3.396-1.334 5.865 0 2.47.49 4.34 1.472 5.612zm-5.842-6.094c0-1.78.26-3.358.782-4.738.52-1.38 1.242-2.545 2.162-3.496 1.78-1.9 4.048-2.852 6.808-2.852 2.82 0 5.152 1.012 6.992 3.036 1.84 2.024 2.76 4.738 2.76 8.142 0 3.557-.98 6.363-2.944 8.418-1.81 1.963-4.08 2.944-6.808 2.944-2.852 0-5.183-1.043-6.992-3.128-1.84-2.055-2.76-4.83-2.76-8.326zm30.59-11.086c.98 0 1.886.138 2.714.414.828.276 1.55.63 2.162 1.058 1.165.797 2.07 1.825 2.714 3.082l-4.692 1.794-1.058-2.346c-.613-.307-1.273-.46-1.978-.46-.705 0-1.35.207-1.932.62-.583.415-.874 1.02-.874 1.818 0 .797.383 1.45 1.15 1.955.767.505 1.825 1.034 3.174 1.586 1.35.552 2.384 1.073 3.105 1.564.72.49 1.28 1.012 1.678 1.564.767 1.012 1.15 2.14 1.15 3.38 0 1.243-.23 2.263-.69 3.06-.46.797-1.058 1.457-1.794 1.978-1.44.98-3.19 1.472-5.244 1.472-1.717 0-3.39-.475-5.014-1.426-1.503-.92-2.484-2.055-2.944-3.404l4.738-1.794 1.104 2.668c.705.307 1.357.46 1.955.46.597 0 1.08-.046 1.448-.138.368-.092.705-.23 1.012-.414.705-.46 1.058-1.135 1.058-2.024 0-1.135-.698-2-2.093-2.6-1.395-.597-2.59-1.14-3.588-1.632-.997-.49-1.832-1.012-2.507-1.564-1.38-1.165-2.07-2.7-2.07-4.6 0-1.87.75-3.373 2.254-4.508 1.41-1.043 3.097-1.564 5.06-1.564zm22.54 17.71c.06.215.383 1.227.966 3.036-.43.4-1.058.797-1.886 1.196-.828.4-1.9.598-3.22.598-1.32 0-2.43-.4-3.335-1.196-.906-.797-1.358-2.1-1.358-3.91V13.094H65.62l-.644-2.99.322-.46h4.094V1.962l3.68-.874.23.69v7.866h4.784c.153 0 .23.092.23.276v3.174h-5.014v13.202c0 .98.146 1.618.437 1.91.29.29.658.436 1.103.436.445 0 .82-.046 1.127-.138.307-.092.598-.215.874-.368.583-.245 1.043-.506 1.38-.782z" fill="#DD390A"/></g></svg>
